X: 9884
T: Derry Craig Wood
R: reel
M: 4/4
K: Gmajor
B3d eBdB|eBGB AGED|B,D D/D/D EDB,D|G3A BAAd|
BA B/c/d eBdB|eBGB AGED|EDB,D E/F/G AB|1 cAFA G3A:|2 cAFA GABc||
|:d2Bd gdd2|edd2 gdBd|e2^ce aee2|afge fded|
Bdd2 gdd2|edd2 gdBd|c2cB cBAB|1 cAFA GABc:|2 cAFA G3A||
|:BAGE DB,EB,|DB,DG B2AB|cBAG FEDE|FEFG A2GA|
BAGE DB,EB,|DB,DG B2AB|c2cB cBAB|cAFA G3A:|

